Flim/Resources/flim.cube
TITLE "FLIM blended (new 55% / old 45%)"
LUT_3D_SIZE 33
0.048040 0.045572 0.049888
0.079412 0.039031 0.046424
0.092549 0.032490 0.044697
0.114074 0.025950 0.042970
0.151453 0.019410 0.041242
0.197923 0.016427 0.039516
0.239613 0.013909 0.037788
0.279886 0.011390 0.036062
0.311408 0.008872 0.034335
0.348446 0.006354 0.032608
0.388011 0.005294 0.030881
0.426391 0.005294 0.029153
0.460609 0.005294 0.027427
0.497216 0.005294 0.025699
0.534334 0.005294 0.023973
0.578227 0.005294 0.022916
0.620271 0.005294 0.022718
0.654955 0.005294 0.022520
0.678640 0.005294 0.022322
0.700520 0.005294 0.022125
0.736909 0.005294 0.021927
0.788227 0.005294 0.021729
0.821788 0.005294 0.021329
0.851034 0.005294 0.020057
0.878523 0.005294 0.018786
0.901660 0.005294 0.017514
0.922446 0.005294 0.016242
0.952919 0.005294 0.014970
0.995333 0.005294 0.013698
0.999090 0.005294 0.012427
1.000000 0.005294 0.011155
1.000000 0.005294 0.009883
1.000000 0.005294 0.008611
0.023374 0.095124 0.046366
0.076362 0.093795 0.044639
0.091139 0.089285 0.042912
0.110878 0.086863 0.041185
0.146209 0.081676 0.039458
0.191303 0.073726 0.037731
0.232900 0.065228 0.036004
0.275959 0.052971 0.034277
0.308971 0.044248 0.032550
0.344707 0.037634 0.030823
0.382846 0.031094 0.029096
0.421292 0.024553 0.027369
0.455845 0.018991 0.025641
0.492616 0.016473 0.023915
0.529791 0.013955 0.022976
0.571010 0.011436 0.022779
0.614661 0.008918 0.022581
0.651807 0.006399 0.022383
0.675544 0.005294 0.022185
0.698254 0.005294 0.021987
0.731264 0.005294 0.021790
0.779178 0.005294 0.021592
0.817831 0.005294 0.020447
0.847570 0.005294 0.019175
0.875145 0.005294 0.017904
0.899848 0.005294 0.016631
0.920889 0.005294 0.015360
0.948837 0.005294 0.014088
0.994260 0.005294 0.012817
0.998882 0.005294 0.011545
1.000000 0.005294 0.010273
1.000000 0.005294 0.009001
1.000000 0.005294 0.007729
0.016912 0.118308 0.044581
0.075491 0.113921 0.042854
0.090266 0.111914 0.041127
0.108025 0.109808 0.039400
0.141862 0.106240 0.037673
0.186182 0.103480 0.035946
0.229711 0.101964 0.034219
0.271125 0.098235 0.032492
0.304524 0.094890 0.030765
0.339387 0.092549 0.029038
0.378788 0.089346 0.027311
0.416832 0.085883 0.025584
0.450122 0.080674 0.023857
0.488013 0.071961 0.023037
0.524042 0.063147 0.022839
0.565478 0.051588 0.022641
0.610578 0.042924 0.022444
0.647428 0.036237 0.022246
0.672327 0.029697 0.022048
0.694889 0.023156 0.021850
0.726600 0.019037 0.021652
0.770180 0.016519 0.020837
0.814021 0.014000 0.019565
0.844048 0.011482 0.018293
0.871772 0.008963 0.017021
0.897206 0.006445 0.015750
0.918495 0.005294 0.014478
0.944944 0.005294 0.013206
0.991788 0.005294 0.011934
0.998675 0.005294 0.010662
1.000000 0.005294 0.009391
1.000000 0.005294 0.008119
1.000000 0.005294 0.006847
0.008713 0.150338 0.042797
0.071781 0.144967 0.041069
0.086863 0.141821 0.039342
0.103922 0.137461 0.037615
0.136949 0.131371 0.035888
0.179794 0.128760 0.034162
0.223735 0.123446 0.032434
0.265276 0.121038 0.030708
0.301940 0.117434 0.028980
0.334166 0.113921 0.027253
0.373624 0.111173 0.025526
0.412897 0.109806 0.023799
0.445733 0.106078 0.023098
0.483109 0.102667 0.022900
0.519989 0.101469 0.022702
0.560536 0.098038 0.022504
0.606193 0.094941 0.022306
0.643850 0.092149 0.022109
0.670768 0.088578 0.021911
0.692979 0.085098 0.021713
0.720541 0.077789 0.021227
0.763188 0.070763 0.019955
0.810183 0.060781 0.018683
0.840513 0.050205 0.017411
0.868333 0.041601 0.016139
0.895532 0.034840 0.014868
0.915384 0.028300 0.013596
0.941791 0.021759 0.012324
0.986314 0.019083 0.011052
0.998467 0.016564 0.009781
1.000000 0.014046 0.008509
1.000000 0.011527 0.007237
1.000000 0.009009 0.005965
0.005294 0.197434 0.041012
0.069804 0.192575 0.039285
0.085582 0.186254 0.037557
0.101985 0.180578 0.035830
0.132430 0.174119 0.034103
0.172595 0.167812 0.032376
0.219316 0.160394 0.030650
0.260210 0.155817 0.028923
0.297458 0.149241 0.027196
0.329376 0.143774 0.025469
0.369619 0.140744 0.023741
0.408865 0.136573 0.023158
0.441827 0.130374 0.022960
0.478512 0.128198 0.022763
0.515567 0.122631 0.022565
0.555710 0.120554 0.022367
0.599308 0.116633 0.022169
0.639884 0.113921 0.021971
0.667673 0.110784 0.021774
0.690459 0.108996 0.021576
0.714549 0.106078 0.020345
0.758336 0.102157 0.019073
0.806316 0.100545 0.017801
0.837013 0.096470 0.016529
0.864838 0.094192 0.015258
0.894140 0.090784 0.013985
0.912475 0.087704 0.012714
0.938572 0.083334 0.011442
0.978259 0.075882 0.010170
0.998259 0.066543 0.008898
0.999992 0.058629 0.007627
1.000000 0.048822 0.006355
1.000000 0.040277 0.005083
0.005294 0.231114 0.039227
0.065883 0.227147 0.037500
0.085098 0.222706 0.035773
0.100205 0.216950 0.034046
0.127245 0.213379 0.032319
0.166244 0.209598 0.030592
0.214578 0.205457 0.028864
0.256601 0.200870 0.027138
0.292898 0.196515 0.025411
0.324514 0.191480 0.023684
0.364431 0.185354 0.023219
0.404553 0.178817 0.023021
0.438053 0.172102 0.022823
0.473953 0.166525 0.022625
0.510969 0.159320 0.022428
0.550158 0.154441 0.022230
0.595456 0.147998 0.022032
0.634033 0.143427 0.021834
0.664552 0.139706 0.021636
0.686521 0.135739 0.020734
0.711444 0.130279 0.019462
0.753688 0.127360 0.018191
0.801673 0.122235 0.016919
0.833278 0.119671 0.015647
0.861322 0.116078 0.014375
0.889894 0.113228 0.013104
0.909653 0.110839 0.011832
0.934262 0.108207 0.010560
0.970967 0.105464 0.009288
0.998051 0.102157 0.008016
0.999784 0.100358 0.006745
1.000000 0.096470 0.005473
1.000000 0.093277 0.004201
0.005294 0.262209 0.037442
0.059804 0.258411 0.035715
0.082466 0.254929 0.033988
0.096642 0.251182 0.032261
0.123026 0.247637 0.030534
0.161293 0.242293 0.028807
0.207363 0.238785 0.027080
0.250619 0.234657 0.025353
0.290555 0.230658 0.023626
0.319885 0.226730 0.023279
0.359823 0.222169 0.023082
0.396795 0.216518 0.022884
0.434170 0.212857 0.022686
0.469350 0.208914 0.022488
0.505116 0.204643 0.022290
0.545999 0.200146 0.022093
0.589274 0.195622 0.021895
0.629189 0.189623 0.021698
0.661295 0.184188 0.021124
0.683221 0.177513 0.019852
0.707537 0.171091 0.018580
0.747993 0.164548 0.017309
0.796559 0.158332 0.016037
0.829531 0.153238 0.014765
0.857869 0.146688 0.013493
0.885719 0.143141 0.012222
0.906866 0.138698 0.010949
0.929967 0.134786 0.009678
0.963463 0.130340 0.008406
0.997842 0.126538 0.007135
0.999577 0.122291 0.005862
1.000000 0.118897 0.004591
1.000000 0.116078 0.003319
0.005294 0.290292 0.035657
0.053980 0.285833 0.033930
0.080662 0.283190 0.032203
0.095966 0.279346 0.030476
0.117830 0.275288 0.028749
0.156972 0.271765 0.027022
0.203047 0.269264 0.025296
0.246596 0.265478 0.023568
0.285795 0.261684 0.023340
0.317212 0.257958 0.023142
0.354560 0.254530 0.022944
0.392856 0.250770 0.022747
0.430247 0.247234 0.022549
0.464753 0.241802 0.022351
0.501449 0.238304 0.022153
0.540442 0.234136 0.021955
0.582792 0.230243 0.021758
0.626208 0.226272 0.021514
0.657953 0.221645 0.020242
0.681678 0.216098 0.018970
0.704217 0.212329 0.017698
0.742614 0.208203 0.016426
0.792729 0.203833 0.015155
0.825836 0.199334 0.013883
0.854493 0.194753 0.012611
0.882199 0.188230 0.011339
0.904056 0.182343 0.010068
0.926887 0.175588 0.008796
0.956503 0.170186 0.007524
0.996770 0.162225 0.006252
0.999369 0.156806 0.004980
1.000000 0.152207 0.003709
1.000000 0.145435 0.002437
0.005294 0.324902 0.033872
0.048905 0.320220 0.032145
0.079412 0.316896 0.030418
0.093146 0.310757 0.028691
0.114908 0.307587 0.026964
0.151080 0.302903 0.025238
0.198174 0.297730 0.023598
0.239376 0.293529 0.023401
0.281148 0.289480 0.023203
0.312502 0.285342 0.023005
0.349587 0.282664 0.022807
0.388705 0.278692 0.022609
0.426369 0.274681 0.022412
0.460401 0.271765 0.022214
0.496990 0.268680 0.022016
0.534575 0.264887 0.021819
0.578467 0.261154 0.021621
0.620927 0.257535 0.020632
0.655405 0.254057 0.019360
0.678872 0.250358 0.018088
0.700975 0.246832 0.016816
0.737524 0.241321 0.015545
0.788810 0.237818 0.014273
0.822090 0.233615 0.013001
0.851169 0.229828 0.011729
0.878689 0.225801 0.010457
0.902123 0.221161 0.009186
0.923580 0.215637 0.007914
0.953831 0.211779 0.006642
0.995698 0.207442 0.005370
0.999161 0.203046 0.004099
1.000000 0.198476 0.002826
1.000000 0.193360 0.001555
0.005294 0.358057 0.032088
0.022729 0.353300 0.030361
0.076524 0.348202 0.028633
0.090784 0.344249 0.026907
0.110457 0.339879 0.025179
0.145650 0.335477 0.023659
0.191166 0.330759 0.023461
0.234324 0.328046 0.023263
0.275965 0.324835 0.023066
0.309777 0.318978 0.022868
0.345589 0.315673 0.022670
0.383075 0.310435 0.022472
0.421942 0.306475 0.022274
0.455901 0.302973 0.022077
0.493094 0.296746 0.021879
0.530229 0.293529 0.021682
0.572262 0.288670 0.021021
0.614848 0.285415 0.019749
0.651778 0.282044 0.018478
0.675686 0.278039 0.017206
0.698387 0.274015 0.015934
0.731490 0.271765 0.014662
0.779238 0.268096 0.013391
0.818137 0.264297 0.012119
0.847720 0.260624 0.010847
0.875258 0.257071 0.009576
0.900750 0.253566 0.008303
0.921403 0.249946 0.007032
0.950307 0.246430 0.005760
0.994626 0.240840 0.004488
0.998953 0.237230 0.003216
1.000000 0.233183 0.001945
1.000000 0.229413 0.000673
0.005294 0.395560 0.030303
0.015607 0.392744 0.028576
0.075491 0.387146 0.026849
0.090158 0.381053 0.025121
0.107539 0.376720 0.023720
0.142124 0.370542 0.023522
0.185586 0.367188 0.023324
0.229649 0.361774 0.023126
0.272128 0.356801 0.022928
0.305264 0.352384 0.022731
0.340211 0.348039 0.022533
0.379142 0.343055 0.022335
0.416852 0.338633 0.022138
0.450588 0.335530 0.021940
0.488099 0.330813 0.021742
0.524591 0.326830 0.021411
0.566694 0.323744 0.020139
0.610890 0.318880 0.018867
0.647357 0.314654 0.017596
0.672593 0.310488 0.016324
0.695020 0.305483 0.015052
0.727058 0.302286 0.013780
0.769697 0.295737 0.012509
0.814289 0.292857 0.011237
0.844226 0.287859 0.009965
0.871901 0.285436 0.008693
0.898107 0.281414 0.007422
0.919571 0.277394 0.006150
0.946020 0.273921 0.004878
0.993554 0.271297 0.003606
0.998745 0.267509 0.002334
1.000000 0.263728 0.001063
1.000000 0.260094 0.000000
0.005294 0.432190 0.028518
0.007409 0.427814 0.026791
0.073678 0.422434 0.025064
0.086863 0.420306 0.023780
0.104829 0.414430 0.023582
0.136376 0.409967 0.023385
0.178957 0.404838 0.023187
0.224527 0.400278 0.022989
0.266540 0.395619 0.022791
0.303010 0.391764 0.022593
0.335231 0.386134 0.022396
0.374489 0.379881 0.022198
0.413061 0.375689 0.022000
0.445638 0.369314 0.021803
0.484177 0.366889 0.021605
0.519749 0.360466 0.020529
0.560596 0.355882 0.019257
0.606968 0.351062 0.017986
0.644349 0.347190 0.016713
0.670940 0.342730 0.015442
0.693443 0.337315 0.014170
0.721013 0.334634 0.012898
0.764074 0.330071 0.011626
0.810462 0.326512 0.010355
0.840679 0.322559 0.009083
0.868474 0.318518 0.007811
0.895975 0.313728 0.006540
0.916418 0.309292 0.005267
0.942867 0.305294 0.003996
0.988182 0.301431 0.002724
0.998538 0.295687 0.001452
1.000000 0.291967 0.000180
1.000000 0.287562 0.000000
0.005294 0.469897 0.026733
0.005294 0.464851 0.025006
0.069804 0.461162 0.023841
0.085195 0.456603 0.023643
0.101596 0.450740 0.023445
0.132726 0.445869 0.023247
0.173493 0.441187 0.023050
0.219824 0.435294 0.022852
0.261470 0.431125 0.022654
0.298464 0.427096 0.022457
0.330179 0.421601 0.022259
0.370077 0.419158 0.022061
0.409012 0.413404 0.021863
0.441771 0.409353 0.021665
0.478270 0.403807 0.020919
0.515733 0.399415 0.019647
0.556295 0.395278 0.018375
0.600739 0.390793 0.017103
0.640454 0.385109 0.015832
0.667833 0.378758 0.014560
0.690676 0.374661 0.013288
0.715407 0.368119 0.012016
0.758542 0.365772 0.010744
0.806607 0.359243 0.009473
0.837175 0.355882 0.008201
0.865010 0.349931 0.006929
0.894675 0.345868 0.005657
0.913467 0.342201 0.004386
0.939670 0.336666 0.003114
0.981313 0.333871 0.001842
0.998330 0.328762 0.000570
1.000000 0.326267 0.000000
1.000000 0.321373 0.000000
0.005294 0.506000 0.024949
0.005294 0.501680 0.023901
0.065883 0.496295 0.023704
0.085098 0.492562 0.023506
0.100392 0.486963 0.023308
0.126510 0.484118 0.023110
0.167211 0.478986 0.022912
0.214145 0.473983 0.022715
0.258210 0.468838 0.022517
0.294012 0.464289 0.022319
0.325468 0.460373 0.022122
0.365524 0.455394 0.021924
0.404805 0.450795 0.021726
0.437990 0.444559 0.021309
0.473705 0.440146 0.020036
0.510914 0.435232 0.018765
0.550298 0.430684 0.017493
0.595677 0.426083 0.016221
0.634573 0.421650 0.014950
0.664683 0.418125 0.013678
0.687223 0.412931 0.012406
0.711454 0.408272 0.011134
0.754511 0.402741 0.009863
0.802505 0.398844 0.008590
0.833549 0.394349 0.007319
0.861483 0.389765 0.006047
0.890501 0.384063 0.004775
0.910602 0.377714 0.003504
0.935931 0.373483 0.002232
0.972966 0.368173 0.000960
0.998122 0.364444 0.000000
0.999855 0.358047 0.000000
1.000000 0.354608 0.000000
0.005294 0.541482 0.023962
0.005294 0.537265 0.023764
0.061868 0.531372 0.023566
0.083248 0.528115 0.023369
0.096470 0.523435 0.023171
0.123277 0.518864 0.022973
0.162219 0.513165 0.022776
0.208055 0.510668 0.022578
0.252104 0.504741 0.022380
0.291609 0.500379 0.022182
0.320700 0.494904 0.021984
0.360478 0.491732 0.021787
0.398220 0.485712 0.021589
0.434131 0.483258 0.020426
0.469098 0.477818 0.019154
0.506188 0.473503 0.017883
0.545886 0.467803 0.016611
0.590891 0.463124 0.015339
0.629262 0.460433 0.014067
0.661448 0.454300 0.012796
0.683830 0.449897 0.011524
0.707941 0.444308 0.010252
0.748496 0.439041 0.008980
0.797041 0.434889 0.007709
0.829756 0.430736 0.006437
0.858015 0.425094 0.005165
0.885889 0.420883 0.003893
0.907819 0.417095 0.002621
0.931039 0.412980 0.001350
0.966756 0.407298 0.000078
0.997914 0.401742 0.000000
0.999647 0.398899 0.000000
1.000000 0.393430 0.000000
0.005294 0.574879 0.023825
0.005294 0.571040 0.023627
0.054118 0.567133 0.023429
0.080254 0.561961 0.023231
0.095566 0.559513 0.023034
0.117093 0.554942 0.022836
0.156335 0.550504 0.022638
0.203394 0.546262 0.022441
0.247744 0.541158 0.022243
0.286879 0.535819 0.022045
0.318119 0.531015 0.021847
0.355274 0.527635 0.021649
0.392908 0.522007 0.020816
0.430225 0.517463 0.019544
0.464527 0.512549 0.018273
0.501278 0.509343 0.017001
0.541098 0.504694 0.015729
0.583740 0.499017 0.014457
0.626208 0.493725 0.013185
0.658082 0.490417 0.011914
0.681903 0.484912 0.010642
0.704739 0.482159 0.009370
0.742872 0.476664 0.008098
0.793004 0.472526 0.006827
0.826072 0.467853 0.005554
0.854595 0.462100 0.004283
0.882368 0.459631 0.003011
0.905014 0.453827 0.001740
0.927938 0.448754 0.000468
0.958431 0.443901 0.000000
0.997136 0.438033 0.000000
0.999440 0.433822 0.000000
1.000000 0.429795 0.000000
0.005294 0.607592 0.023688
0.005294 0.602348 0.023490
0.049589 0.598550 0.023292
0.079412 0.594720 0.023095
0.094149 0.590760 0.022897
0.114834 0.586639 0.022699
0.151010 0.582886 0.022501
0.197438 0.578849 0.022303
0.240108 0.574917 0.022106
0.282237 0.570326 0.021908
0.313561 0.565354 0.021710
0.350845 0.560818 0.021206
0.389012 0.558318 0.019934
0.426346 0.553525 0.018662
0.460193 0.549175 0.017390
0.496947 0.544821 0.016119
0.535080 0.540549 0.014847
0.578500 0.534356 0.013575
0.621441 0.529513 0.012304
0.655854 0.526967 0.011031
0.679070 0.521867 0.009760
0.701481 0.516211 0.008488
0.737954 0.512189 0.007216
0.788961 0.508058 0.005944
0.822336 0.503876 0.004673
0.851271 0.497581 0.003401
0.878854 0.493725 0.002129
0.902586 0.489293 0.000857
0.924714 0.484952 0.000000
0.954742 0.480991 0.000000
0.996064 0.476711 0.000000
0.999232 0.471435 0.000000
1.000000 0.467028 0.000000
0.005294 0.637349 0.023550
0.005294 0.633934 0.023353
0.031723 0.630196 0.023155
0.077371 0.626283 0.022957
0.090784 0.621644 0.022760
0.110036 0.617951 0.022562
0.145865 0.614035 0.022364
0.190678 0.611735 0.022166
0.235668 0.607583 0.021968
0.276853 0.601623 0.021771
0.309595 0.597377 0.021573
0.346464 0.593626 0.020324
0.383710 0.589516 0.019052
0.422397 0.585395 0.017780
0.455720 0.582678 0.016508
0.493627 0.578110 0.015237
0.530143 0.573486 0.013965
0.573636 0.569352 0.012693
0.615580 0.563953 0.011421
0.651753 0.560196 0.010150
0.675840 0.558242 0.008878
0.698520 0.552723 0.007606
0.731715 0.548942 0.006334
0.779299 0.543422 0.005062
0.818461 0.539199 0.003791
0.847870 0.533811 0.002519
0.875372 0.528134 0.001247
0.901229 0.525523 0.000000
0.921917 0.520805 0.000000
0.951777 0.514768 0.000000
0.994992 0.510757 0.000000
0.999024 0.506983 0.000000
1.000000 0.502559 0.000000
0.005294 0.680339 0.023414
0.005294 0.674958 0.023216
0.014303 0.669323 0.023018
0.075136 0.662803 0.022820
0.089780 0.657888 0.022622
0.107050 0.652191 0.022425
0.141553 0.647784 0.022227
0.185403 0.641512 0.022029
0.229988 0.636459 0.021831
0.273105 0.632909 0.021633
0.306344 0.629736 0.020714
0.341200 0.626322 0.019441
0.379502 0.621045 0.018170
0.417157 0.617101 0.016898
0.451650 0.614075 0.015627
0.488595 0.610844 0.014354
0.525669 0.607487 0.013083
0.567910 0.601704 0.011811
0.611412 0.597360 0.010539
0.647290 0.593343 0.009268
0.673031 0.589284 0.007996
0.695235 0.585253 0.006724
0.727317 0.581308 0.005452
0.769307 0.577163 0.004181
0.814557 0.573227 0.002908
0.844405 0.568941 0.001637
0.872015 0.563768 0.000365
0.899008 0.559351 0.000000
0.920411 0.556855 0.000000
0.947469 0.552342 0.000000
0.993920 0.548106 0.000000
0.998816 0.543401 0.000000
1.000000 0.537749 0.000000
0.005294 0.715113 0.023276
0.005294 0.711481 0.023079
0.006105 0.707500 0.022881
0.073141 0.702610 0.022683
0.087832 0.697711 0.022485
0.105910 0.693036 0.022287
0.136025 0.689143 0.022090
0.179277 0.684190 0.021892
0.225353 0.679702 0.021694
0.267827 0.674294 0.021103
0.303184 0.667929 0.019831
0.336246 0.661832 0.018560
0.375355 0.656598 0.017288
0.413471 0.652209 0.016016
0.445542 0.646476 0.014744
0.484632 0.641592 0.013472
0.519513 0.636501 0.012201
0.560815 0.632492 0.010929
0.607742 0.628866 0.009657
0.644653 0.625973 0.008385
0.671112 0.621125 0.007114
0.693793 0.616301 0.005842
0.721490 0.614114 0.004570
0.764960 0.610055 0.003298
0.810741 0.606491 0.002027
0.840857 0.601038 0.000755
0.868616 0.596856 0.000000
0.896419 0.592905 0.000000
0.917493 0.588757 0.000000
0.943942 0.585294 0.000000
0.990049 0.581245 0.000000
0.998609 0.576934 0.000000
1.000000 0.572156 0.000000
0.005294 0.743144 0.023139
0.005294 0.739567 0.022941
0.005294 0.735965 0.022744
0.069804 0.732388 0.022546
0.085098 0.728848 0.022348
0.101206 0.725258 0.022150
0.132124 0.721669 0.021952
0.173287 0.718109 0.021755
0.219326 0.714503 0.021493
0.262679 0.710871 0.020221
0.299498 0.706410 0.018949
0.331029 0.701519 0.017678
0.370522 0.696740 0.016406
0.409045 0.692201 0.015134
0.441820 0.688376 0.013862
0.478584 0.683109 0.012591
0.516241 0.679042 0.011318
0.556360 0.673499 0.010047
0.602241 0.666201 0.008775
0.640567 0.660810 0.007503
0.667997 0.655291 0.006232
0.690894 0.651046 0.004960
0.716379 0.645271 0.003688
0.758925 0.640606 0.002416
0.806899 0.636074 0.001145
0.837337 0.632532 0.000000
0.865177 0.628551 0.000000
0.895020 0.625125 0.000000
0.914460 0.620981 0.000000
0.940768 0.616341 0.000000
0.984367 0.613999 0.000000
0.998401 0.610097 0.000000
1.000000 0.605949 0.000000
0.005294 0.773759 0.023002
0.005294 0.769933 0.022804
0.005294 0.764466 0.022606
0.068039 0.760507 0.022409
0.085098 0.756852 0.022211
0.100392 0.753244 0.022013
0.126009 0.749687 0.021815
0.167096 0.746131 0.021617
0.213560 0.742530 0.020611
0.258705 0.738953 0.019339
0.295098 0.735352 0.018068
0.326439 0.731777 0.016795
0.366502 0.728238 0.015524
0.405016 0.724647 0.014252
0.438476 0.721058 0.012980
0.473436 0.717497 0.011708
0.511228 0.713894 0.010437
0.550882 0.710257 0.009165
0.595882 0.705319 0.007893
0.635100 0.700428 0.006621
0.664814 0.695768 0.005349
0.687924 0.691612 0.004078
0.711682 0.687215 0.002806
0.754720 0.682469 0.001534
0.803020 0.678339 0.000262
0.833819 0.672660 0.000000
0.861655 0.664946 0.000000
0.891108 0.659752 0.000000
0.911551 0.654271 0.000000
0.937549 0.649697 0.000000
0.975414 0.644905 0.000000
0.998193 0.639987 0.000000
0.999926 0.635049 0.000000
0.005294 0.810031 0.022865
0.005294 0.804967 0.022667
0.005294 0.799881 0.022469
0.062353 0.795990 0.022271
0.083334 0.791939 0.022074
0.097413 0.786632 0.021876
0.122931 0.782253 0.021678
0.161838 0.778284 0.021001
0.208847 0.773148 0.019728
0.253811 0.769334 0.018457
0.291572 0.763885 0.017185
0.321632 0.759893 0.015914
0.361159 0.756239 0.014642
0.399711 0.752629 0.013370
0.434107 0.749072 0.012098
0.468844 0.745516 0.010826
0.507160 0.741915 0.009555
0.545745 0.738338 0.008283
0.592419 0.734740 0.007011
0.629388 0.731164 0.005739
0.661580 0.727627 0.004468
0.684757 0.724037 0.003196
0.708413 0.720447 0.001924
0.749127 0.716886 0.000652
0.797873 0.713284 0.000000
0.830002 0.709168 0.000000
0.858161 0.704228 0.000000
0.886305 0.699372 0.000000
0.908768 0.694797 0.000000
0.932708 0.691023 0.000000
0.969105 0.686053 0.000000
0.997985 0.681829 0.000000
0.999718 0.677636 0.000000
0.005294 0.848075 0.022728
0.005294 0.842111 0.022530
0.005294 0.836595 0.022332
0.056174 0.831758 0.022134
0.079848 0.827644 0.021936
0.095166 0.824005 0.021739
0.117316 0.819254 0.021390
0.155697 0.814249 0.020118
0.202885 0.809206 0.018847
0.247808 0.804142 0.017575
0.288048 0.799057 0.016303
0.318215 0.795140 0.015032
0.355908 0.791118 0.013759
0.392947 0.785812 0.012488
0.430202 0.781629 0.011216
0.464656 0.777699 0.009944
0.501028 0.772538 0.008672
0.541491 0.768723 0.007401
0.584688 0.763304 0.006129
0.626213 0.759280 0.004857
0.658212 0.755625 0.003585
0.682129 0.752014 0.002314
0.705261 0.748457 0.001042
0.743156 0.744902 0.000000
0.793279 0.741300 0.000000
0.826297 0.737723 0.000000
0.854707 0.734130 0.000000
0.882537 0.730553 0.000000
0.905973 0.727016 0.000000
0.928988 0.723426 0.000000
0.961022 0.719836 0.000000
0.997502 0.716274 0.000000
0.999511 0.712674 0.000000
0.005294 0.891068 0.022590
0.005294 0.885011 0.022393
0.005294 0.878959 0.022195
0.049774 0.872908 0.021997
0.079412 0.867143 0.021799
0.094534 0.861711 0.021601
0.114415 0.856564 0.020508
0.151946 0.852071 0.019236
0.196715 0.847267 0.017965
0.241524 0.841303 0.016693
0.283307 0.835766 0.015421
0.314595 0.830930 0.014149
0.352040 0.826793 0.012878
0.389303 0.823154 0.011606
0.426300 0.818428 0.010334
0.459984 0.813424 0.009062
0.497451 0.808381 0.007790
0.535912 0.803318 0.006519
0.578532 0.798232 0.005247
0.621519 0.794292 0.003975
0.656025 0.790298 0.002703
0.679237 0.784992 0.001432
0.702353 0.781011 0.000160
0.738384 0.777114 0.000000
0.788477 0.771927 0.000000
0.822583 0.768112 0.000000
0.851373 0.762723 0.000000
0.879020 0.758666 0.000000
0.903163 0.755012 0.000000
0.925848 0.751398 0.000000
0.955654 0.747841 0.000000
0.996430 0.744286 0.000000
0.999303 0.740687 0.000000
0.005294 0.940813 0.022453
0.005294 0.935736 0.022255
0.005294 0.930153 0.022058
0.042816 0.924114 0.021860
0.077647 0.916376 0.021662
0.090784 0.909644 0.020898
0.110322 0.902912 0.019626
0.146646 0.896319 0.018355
0.191193 0.890262 0.017082
0.236828 0.884204 0.015811
0.277846 0.878152 0.014539
0.309790 0.872101 0.013267
0.347306 0.866325 0.011996
0.384538 0.860893 0.010724
0.422435 0.855729 0.009452
0.456255 0.851235 0.008180
0.493615 0.846458 0.006909
0.530575 0.840495 0.005636
0.574741 0.834938 0.004365
0.616322 0.830100 0.003093
0.651730 0.825943 0.001821
0.675994 0.822303 0.000549
0.698652 0.817602 0.000000
0.732201 0.812598 0.000000
0.779360 0.807556 0.000000
0.818786 0.802494 0.000000
0.848019 0.797408 0.000000
0.875510 0.793442 0.000000
0.901692 0.789478 0.000000
0.922523 0.784213 0.000000
0.952982 0.780392 0.000000
0.995357 0.776529 0.000000
0.999095 0.771317 0.000000
0.005294 0.963237 0.022316
0.005294 0.961335 0.022118
0.005294 0.959433 0.021920
0.012999 0.957531 0.021723
0.074273 0.955628 0.021288
0.089403 0.952680 0.020016
0.106561 0.948748 0.018744
0.140982 0.944816 0.017472
0.186017 0.940884 0.016201
0.230813 0.935836 0.014929
0.272761 0.930254 0.013657
0.307450 0.923342 0.012385
0.342258 0.915582 0.011113
0.379885 0.908850 0.009842
0.417807 0.902117 0.008570
0.452712 0.895512 0.007298
0.489011 0.889455 0.006026
0.526747 0.883397 0.004755
0.568880 0.877345 0.003483
0.611934 0.871294 0.002211
0.647222 0.865506 0.000939
0.673469 0.860074 0.000000
0.695690 0.854894 0.000000
0.727401 0.850401 0.000000
0.769726 0.845650 0.000000
0.814825 0.839686 0.000000
0.844556 0.834109 0.000000
0.872128 0.829271 0.000000
