Flim/Resources/flim.cube
TITLE "FLIM blended (new 55% / old 45%)"
LUT_3D_SIZE 9
0.048040 0.045572 0.049888
0.151453 0.019410 0.041242
0.311408 0.008872 0.034335
0.460609 0.005294 0.027427
0.620271 0.005294 0.022718
0.736909 0.005294 0.021927
0.878523 0.005294 0.018786
0.995333 0.005294 0.013698
1.000000 0.005294 0.008611
0.005294 0.197434 0.041012
0.132430 0.174119 0.034103
0.297458 0.149241 0.027196
0.441827 0.130374 0.022960
0.599308 0.116633 0.022169
0.714549 0.106078 0.020345
0.864838 0.094192 0.015258
0.978259 0.075882 0.010170
1.000000 0.040277 0.005083
0.005294 0.324902 0.033872
0.114908 0.307587 0.026964
0.281148 0.289480 0.023203
0.426369 0.274681 0.022412
0.578467 0.261154 0.021621
0.700975 0.246832 0.016816
0.851169 0.229828 0.011729
0.953831 0.211779 0.006642
1.000000 0.193360 0.001555
0.005294 0.469897 0.026733
0.101596 0.450740 0.023445
0.261470 0.431125 0.022654
0.409012 0.413404 0.021863
0.556295 0.395278 0.018375
0.690676 0.374661 0.013288
0.837175 0.355882 0.008201
0.939670 0.336666 0.003114
1.000000 0.321373 0.000000
0.005294 0.607592 0.023688
0.094149 0.590760 0.022897
0.240108 0.574917 0.022106
0.389012 0.558318 0.019934
0.535080 0.540549 0.014847
0.679070 0.521867 0.009760
0.822336 0.503876 0.004673
0.924714 0.484952 0.000000
1.000000 0.467028 0.000000
0.005294 0.743144 0.023139
0.085098 0.728848 0.022348
0.219326 0.714503 0.021493
0.370522 0.696740 0.016406
0.516241 0.679042 0.011318
0.667997 0.655291 0.006232
0.806899 0.636074 0.001145
0.914460 0.620981 0.000000
1.000000 0.605949 0.000000
0.005294 0.891068 0.022590
0.079412 0.867143 0.021799
0.196715 0.847267 0.017965
0.352040 0.826793 0.012878
0.497451 0.808381 0.007790
0.656025 0.790298 0.002703
0.788477 0.771927 0.000000
0.903163 0.755012 0.000000
0.999303 0.740687 0.000000
0.005294 0.996892 0.022042
0.069994 0.995931 0.019523
0.172626 0.977968 0.014436
0.332142 0.970684 0.009349
0.479652 0.963306 0.004262
0.640622 0.955697 0.000000
0.759811 0.941026 0.000000
0.895136 0.913993 0.000000
0.998472 0.887841 0.000000
0.005294 1.000000 0.021083
0.050046 1.000000 0.015995
0.151709 1.000000 0.010908
0.315537 1.000000 0.005821
0.460107 1.000000 0.000734
0.621596 0.999795 0.000000
0.738608 0.998833 0.000000
0.879186 0.997872 0.000000
0.996796 0.996910 0.000000
0.005294 0.028546 0.182549
0.136865 0.017616 0.174564
0.307090 0.007542 0.164117
0.449731 0.005294 0.147410
0.609773 0.005294 0.133781
0.724178 0.005294 0.121533
0.870046 0.005294 0.113137
0.994517 0.005294 0.105885
1.000000 0.005294 0.090853
0.005294 0.182254 0.173739
0.118233 0.156587 0.163486
0.291119 0.138311 0.147423
0.432480 0.123321 0.133416
0.590003 0.111258 0.120835
0.707419 0.099516 0.113407
0.856253 0.081819 0.106653
0.972367 0.055291 0.089929
1.000000 0.027872 0.080728
0.005294 0.316100 0.162558
0.104718 0.298868 0.148343
0.272446 0.281356 0.133074
0.416467 0.267768 0.120892
0.567574 0.253599 0.113890
0.695609 0.238780 0.106112
0.842646 0.222598 0.089089
0.951335 0.200590 0.080255
1.000000 0.176813 0.072351
0.005294 0.459170 0.147665
0.096863 0.441117 0.132015
0.255075 0.421134 0.121813
0.398756 0.404231 0.113659
0.543606 0.381885 0.105910
0.685856 0.362456 0.088073
0.828559 0.344298 0.080453
0.937099 0.328080 0.073000
1.000000 0.313480 0.065390
0.005294 0.600129 0.131892
0.087884 0.582712 0.122073
0.230779 0.563398 0.113530
0.379614 0.548108 0.104729
0.523992 0.527718 0.088368
0.672931 0.509654 0.080815
0.813510 0.491150 0.073191
0.922276 0.474753 0.064917
1.000000 0.456238 0.060392
0.005294 0.735183 0.121238
0.081569 0.720902 0.113459
0.205911 0.703222 0.105197
0.361892 0.686214 0.088694
0.505378 0.665301 0.080991
0.660588 0.645972 0.072717
0.798046 0.630051 0.064518
0.912245 0.613849 0.061738
0.999976 0.597185 0.060392
0.005294 0.879662 0.113549
0.074117 0.856067 0.105536
0.180341 0.835911 0.088791
0.343983 0.816665 0.080517
0.486685 0.797511 0.072695
0.646037 0.780930 0.065167
0.770059 0.763827 0.062549
0.902016 0.746994 0.060392
0.999144 0.732738 0.058235
0.005294 0.996765 0.104721
0.060981 0.995804 0.088317
0.158573 0.977007 0.080620
0.324788 0.969723 0.073058
0.466528 0.962302 0.065653
0.629728 0.954678 0.062549
0.747956 0.933406 0.060392
0.886676 0.902231 0.059202
0.998313 0.876436 0.058235
0.005294 1.000000 0.088508
0.028395 1.000000 0.080946
0.136769 1.000000 0.073419
0.309106 1.000000 0.065179
0.450218 1.000000 0.062549
0.613174 0.999668 0.061311
0.726292 0.998706 0.060392
0.870613 0.997744 0.058235
0.995980 0.996783 0.056175
0.005294 0.026360 0.305952
0.123362 0.016287 0.296013
0.300654 0.006213 0.282124
0.439224 0.005294 0.269957
0.601159 0.005294 0.259019
0.716834 0.005294 0.248040
0.861590 0.005294 0.239925
0.993700 0.005294 0.234853
1.000000 0.005294 0.227843
0.005294 0.164503 0.295401
0.110058 0.145437 0.281902
0.284586 0.130055 0.269712
0.422404 0.118054 0.258048
0.579186 0.105018 0.248551
0.702597 0.086275 0.240483
0.847717 0.059997 0.234619
0.967905 0.041961 0.227843
1.000000 0.026543 0.219887
0.005294 0.307092 0.282077
0.099265 0.291481 0.268761
0.266895 0.275967 0.257260
0.405065 0.262271 0.248455
0.554581 0.247768 0.240980
0.691098 0.231386 0.233989
0.834109 0.212461 0.227666
0.948056 0.184202 0.220333
1.000000 0.160253 0.210621
0.005294 0.449904 0.267715
0.092345 0.431022 0.258179
0.244372 0.411829 0.248431
0.389694 0.391008 0.240721
0.532312 0.370980 0.234025
0.678769 0.350348 0.228069
0.819754 0.334475 0.220038
0.933375 0.319590 0.209335
1.000000 0.304695 0.194466
0.005294 0.590703 0.258196
0.083725 0.571483 0.248431
0.215447 0.553313 0.240269
0.370401 0.534927 0.234946
0.513061 0.515874 0.228235
0.664868 0.496658 0.219084
0.804583 0.480869 0.208039
0.921130 0.465463 0.193534
1.000000 0.447539 0.180927
0.005294 0.727251 0.247517
0.076274 0.709747 0.240405
0.188939 0.692626 0.235687
0.354869 0.672908 0.228235
0.494573 0.654527 0.219182
0.651338 0.639780 0.209230
0.778310 0.623695 0.193922
0.910097 0.606240 0.179723
0.999817 0.587498 0.170488
0.005294 0.868257 0.241249
0.064793 0.844992 0.235538
0.164913 0.824554 0.228488
0.336680 0.806536 0.219965
0.475349 0.788199 0.208904
0.635553 0.772374 0.192728
0.758075 0.755713 0.179067
0.893866 0.739056 0.170564
0.998986 0.724806 0.162779
0.005294 0.996638 0.234979
0.039423 0.995290 0.229084
0.144560 0.976045 0.219846
0.318413 0.968761 0.207272
0.456637 0.961298 0.192157
0.619526 0.947571 0.178315
0.735484 0.920967 0.170588
0.877405 0.890469 0.161968
0.998155 0.865030 0.153669
0.005294 1.000000 0.229349
0.020997 1.000000 0.219412
0.123389 1.000000 0.206667
0.302905 1.000000 0.192341
0.441500 1.000000 0.178378
0.603599 0.999541 0.170588
0.718612 0.998579 0.162313
0.862044 0.997617 0.153672
0.995163 0.996655 0.137724
0.005294 0.025031 0.419915
0.112890 0.014957 0.410968
0.293627 0.005294 0.404722
0.428228 0.005294 0.398719
0.591112 0.005294 0.391146
0.710556 0.005294 0.383132
0.853095 0.005294 0.376351
0.990235 0.005294 0.369854
1.000000 0.005294 0.359734
0.005294 0.152196 0.411333
0.103061 0.138022 0.404131
0.278109 0.125490 0.398888
0.412237 0.111116 0.391191
0.566764 0.092636 0.383452
0.697695 0.064703 0.375786
0.839187 0.048431 0.370119
0.961281 0.041139 0.359951
1.000000 0.025213 0.349768
0.005294 0.298982 0.404217
0.095490 0.284361 0.398323
0.256915 0.268964 0.391847
0.396549 0.254621 0.384214
0.541607 0.240174 0.375298
0.685181 0.221864 0.370370
0.825519 0.193227 0.360168
0.945126 0.167331 0.349156
1.000000 0.150203 0.336307
0.005294 0.441203 0.397668
0.086660 0.421350 0.392504
0.228585 0.398894 0.384958
0.378662 0.378150 0.375530
0.521485 0.359376 0.369933
0.670017 0.341730 0.360393
0.811009 0.325263 0.348868
0.930144 0.310979 0.336338
1.000000 0.297647 0.321834
0.005294 0.579792 0.393161
0.079525 0.560897 0.385572
0.197398 0.539840 0.375794
0.364064 0.523274 0.369456
0.501096 0.502401 0.360578
0.656525 0.486673 0.348969
0.785510 0.470353 0.335737
0.919752 0.457181 0.321559
1.000000 0.438684 0.311176
0.005294 0.716199 0.385717
0.069035 0.699078 0.376046
0.172480 0.679546 0.368779
0.347583 0.663073 0.360762
0.481663 0.647154 0.349072
0.641162 0.633797 0.334938
0.766068 0.616313 0.321377
0.901641 0.597760 0.310483
0.999660 0.575726 0.302260
0.005294 0.856854 0.376267
0.041961 0.833916 0.368562
0.150943 0.813198 0.360451
0.330006 0.797405 0.348685
0.463974 0.779760 0.334237
0.626419 0.764152 0.322148
0.744608 0.746769 0.310118
0.884573 0.731132 0.301131
0.998828 0.712601 0.293309
0.005294 0.996511 0.368478
0.037647 0.990134 0.359833
0.129275 0.975084 0.348222
0.312140 0.967800 0.334108
0.446873 0.955499 0.321836
0.610073 0.936004 0.309886
0.727312 0.908528 0.300588
0.867847 0.878707 0.294196
0.997997 0.853627 0.287511
0.005294 1.000000 0.359206
0.005294 1.000000 0.347758
0.113669 1.000000 0.333947
0.296558 1.000000 0.320831
0.431492 1.000000 0.310586
0.592611 0.999414 0.300976
0.713202 0.998452 0.295083
0.853588 0.997490 0.287756
0.994347 0.996529 0.281652
0.005294 0.023701 0.557806
0.107255 0.013627 0.547517
0.287808 0.005294 0.538799
0.418631 0.005294 0.528837
0.578552 0.005294 0.515559
0.704804 0.005294 0.500430
0.844577 0.005294 0.490268
0.986069 0.005294 0.477882
1.000000 0.005294 0.468202
0.005294 0.145543 0.548026
0.097647 0.131961 0.539230
0.268051 0.118628 0.528037
0.402660 0.097475 0.515557
0.553512 0.069853 0.500228
0.690697 0.052331 0.489950
0.830742 0.046737 0.477595
0.956383 0.039804 0.467939
1.000000 0.023884 0.459597
0.005294 0.294083 0.538766
0.090536 0.277724 0.527674
0.242089 0.262685 0.515132
0.388168 0.248741 0.500607
0.530020 0.231075 0.489564
0.677363 0.204360 0.477293
0.816918 0.177897 0.467765
0.942725 0.159073 0.459947
1.000000 0.144117 0.453208
0.005294 0.431712 0.527939
0.082353 0.408743 0.514359
0.211925 0.386078 0.501520
0.372142 0.367628 0.489039
0.509610 0.349788 0.476923
0.661102 0.333442 0.467593
0.792147 0.318039 0.460399
0.927799 0.304119 0.453127
1.000000 0.292001 0.446301
0.005294 0.568789 0.514784
0.070806 0.547641 0.501886
0.181524 0.528183 0.488783
0.357212 0.509855 0.476554
0.488997 0.492549 0.467451
0.646642 0.476989 0.460744
0.774450 0.462827 0.453030
0.911794 0.447378 0.446123
1.000000 0.428700 0.440427
0.005294 0.705431 0.501834
0.046514 0.686201 0.488418
0.158068 0.669403 0.476254
0.341294 0.656769 0.467325
0.470018 0.641218 0.460598
0.631759 0.626523 0.452933
0.753787 0.607931 0.445974
0.892039 0.586329 0.440811
0.999501 0.564052 0.433834
0.005294 0.845452 0.488333
0.041961 0.823231 0.475960
0.136664 0.803853 0.467124
0.323756 0.789012 0.460476
0.455037 0.771320 0.452820
0.618043 0.756317 0.446452
0.737063 0.737836 0.440784
0.875091 0.718937 0.433753
0.998670 0.702488 0.424921
0.005294 0.996384 0.475874
0.033333 0.984979 0.467541
0.119544 0.974123 0.460366
0.304128 0.962281 0.452701
0.436877 0.945003 0.446905
0.600044 0.924436 0.440756
0.721262 0.896088 0.433672
0.858946 0.866945 0.424899
0.997820 0.842224 0.417894
0.005294 1.000000 0.467994
0.005294 1.000000 0.460270
0.108193 1.000000 0.452618
0.289615 1.000000 0.447357
0.419290 1.000000 0.440729
0.581670 0.999287 0.433571
0.708179 0.998325 0.425166
0.845132 0.997364 0.417555
0.993531 0.996402 0.408642
0.005294 0.022372 0.699058
0.102188 0.012298 0.687582
0.278516 0.005294 0.677658
0.408917 0.005294 0.667913
0.566562 0.005294 0.658896
0.697339 0.005294 0.647945
0.836020 0.005294 0.637122
0.979995 0.005294 0.625313
1.000000 0.005294 0.610940
0.005294 0.139001 0.687627
0.094118 0.126662 0.677871
0.253766 0.106675 0.667515
0.394986 0.076272 0.658902
0.541540 0.057059 0.647742
0.682431 0.050784 0.637148
0.822311 0.046275 0.624137
0.954349 0.035203 0.610481
1.000000 0.022554 0.599800
0.005294 0.286867 0.678065
0.084510 0.270860 0.667206
0.224888 0.255593 0.658908
0.381667 0.238203 0.647539
0.519226 0.213247 0.637401
0.667889 0.188053 0.622609
0.798300 0.167256 0.609824
0.940294 0.151879 0.600430
1.000000 0.137468 0.590856
0.005294 0.419127 0.667209
0.075294 0.395693 0.658364
0.192972 0.376617 0.647285
0.365412 0.359185 0.638149
0.496625 0.339793 0.621675
0.651257 0.324870 0.609829
0.781683 0.312050 0.600147
0.920580 0.298601 0.590566
1.000000 0.285165 0.579481
0.005294 0.555953 0.657762
0.051769 0.535535 0.647154
0.166016 0.514792 0.638720
0.351191 0.499948 0.622266
0.478635 0.483812 0.609814
0.637140 0.469587 0.600084
0.762831 0.454234 0.590797
0.901995 0.436787 0.579400
1.000000 0.414455 0.566272
0.005294 0.692741 0.647024
0.044118 0.675693 0.638516
0.143558 0.663179 0.621834
0.335375 0.651392 0.609034
0.460678 0.633943 0.600519
0.623475 0.618045 0.591251
0.745900 0.596449 0.578869
0.882429 0.574693 0.566651
0.999343 0.552090 0.553987
0.005294 0.834050 0.638179
0.041346 0.814048 0.620993
0.125490 0.795545 0.609221
0.315450 0.780617 0.600063
0.444251 0.763561 0.590885
0.608469 0.748495 0.578101
0.730343 0.725381 0.566079
0.866286 0.708938 0.553574
0.998512 0.688985 0.540879
0.005294 0.996257 0.621053
0.031177 0.980445 0.609537
0.113457 0.968841 0.599524
0.299340 0.951828 0.591081
0.427187 0.934507 0.578265
0.589933 0.912868 0.565416
0.716402 0.883650 0.553007
0.850366 0.855183 0.540696
0.997004 0.830822 0.528780
0.005294 1.000000 0.609074
0.005294 1.000000 0.599910
0.101961 1.000000 0.591593
0.281242 1.000000 0.578942
0.409662 1.000000 0.564683
0.569601 0.999160 0.552423
0.701084 0.998198 0.540531
0.836624 0.997237 0.528750
0.989371 0.996275 0.520269
0.005294 0.021042 0.830654
0.096426 0.010968 0.821326
0.264482 0.005294 0.811998
0.401170 0.005294 0.802459
0.553331 0.005294 0.792881
0.689621 0.005294 0.783305
0.827434 0.005294 0.773768
0.973503 0.005294 0.764231
1.000000 0.005294 0.753711
0.005294 0.133137 0.821393
0.088432 0.114022 0.812065
0.236893 0.084449 0.802603
0.388462 0.062247 0.793026
0.529887 0.056471 0.783447
0.673445 0.050588 0.773900
0.804282 0.046275 0.764363
0.952171 0.033467 0.753594
1.000000 0.021224 0.742621
0.005294 0.279213 0.812133
0.078685 0.264381 0.802748
0.207469 0.246273 0.793169
0.375018 0.221662 0.783591
0.506396 0.197055 0.774031
0.658010 0.177939 0.764494
0.788550 0.159215 0.753576
0.933844 0.144759 0.742435
1.000000 0.129637 0.733500
0.005294 0.405976 0.802872
0.057024 0.385030 0.793313
0.178038 0.367718 0.783736
0.359498 0.348867 0.774162
0.486593 0.331163 0.764626
0.641398 0.318014 0.753560
0.769809 0.305152 0.742387
0.910578 0.292302 0.733448
1.000000 0.277503 0.723335
0.005294 0.543463 0.793458
0.046275 0.522351 0.783880
0.152415 0.505490 0.774301
0.345531 0.490430 0.764757
0.468335 0.475794 0.753542
0.628992 0.460503 0.742378
0.753893 0.443685 0.733395
0.892310 0.422961 0.723093
1.000000 0.402634 0.714214
0.005294 0.681876 0.784024
0.044118 0.669470 0.774446
0.132287 0.658193 0.764889
0.327172 0.644033 0.753525
0.450717 0.625830 0.742516
0.614397 0.605330 0.733343
0.739348 0.584904 0.722851
0.873530 0.562615 0.713740
0.999185 0.539449 0.702846
0.005294 0.823983 0.774589
0.039804 0.805921 0.764964
0.120196 0.787237 0.753508
0.308550 0.772236 0.742653
0.433444 0.755881 0.733291
0.597548 0.735572 0.722778
0.724277 0.715412 0.713282
0.857825 0.695600 0.702843
0.998353 0.680237 0.694076
0.005294 0.996131 0.764951
0.028887 0.975401 0.753492
0.107201 0.958388 0.742790
0.289779 0.941349 0.733238
0.417589 0.924011 0.722704
0.579196 0.901301 0.713062
0.709256 0.871210 0.702835
0.841791 0.843638 0.693559
0.996187 0.821657 0.676861
0.005294 1.000000 0.753475
0.005294 1.000000 0.742927
0.098432 1.000000 0.733334
0.267303 1.000000 0.722631
0.401837 0.999995 0.713030
0.556798 0.999033 0.702768
0.692107 0.998072 0.693001
0.828106 0.997110 0.677189
0.985204 0.996148 0.665687
0.005294 0.019713 0.925878
0.092745 0.009639 0.924026
0.249296 0.005294 0.922194
0.394420 0.005294 0.920546
0.542485 0.005294 0.918899
0.681079 0.005294 0.912357
0.811225 0.005294 0.903439
0.969042 0.005294 0.894521
1.000000 0.005294 0.885603
0.005294 0.122488 0.924593
0.081466 0.090591 0.922741
0.219425 0.069480 0.921051
0.381818 0.061373 0.919404
0.517730 0.054902 0.912299
0.663617 0.049957 0.903381
0.794335 0.045672 0.894463
0.945672 0.031498 0.885545
1.000000 0.019895 0.876627
0.005294 0.273169 0.923309
0.064290 0.254486 0.921556
0.192073 0.228862 0.919909
0.369217 0.204801 0.912241
0.494430 0.187842 0.903322
0.647062 0.170000 0.894405
0.776509 0.153221 0.885487
0.922854 0.136732 0.876569
1.000000 0.114456 0.867651
0.005294 0.395242 0.922061
0.048431 0.375522 0.920413
0.161695 0.357394 0.912183
0.354045 0.340458 0.903264
0.476862 0.325686 0.894346
0.633306 0.311807 0.885429
0.759760 0.298378 0.876511
0.901702 0.285513 0.867593
1.000000 0.270533 0.858723
0.005294 0.530611 0.920918
0.046275 0.512018 0.912124
0.139919 0.497369 0.903206
0.338246 0.481817 0.894288
0.458181 0.466075 0.885371
0.619269 0.450025 0.876453
0.747271 0.430066 0.867534
0.882667 0.411286 0.858619
0.999858 0.392260 0.849850
0.005294 0.675666 0.912066
0.043884 0.664746 0.903148
0.124596 0.650719 0.894230
0.320489 0.635846 0.885312
0.440705 0.614323 0.876395
0.603629 0.592974 0.867476
0.733641 0.572284 0.858558
0.865027 0.549961 0.849746
0.999027 0.527745 0.840977
0.005294 0.815131 0.903090
0.039804 0.797795 0.894172
0.113528 0.779289 0.885254
0.299697 0.763860 0.876336
0.423586 0.744041 0.867418
0.586197 0.724827 0.858500
0.717691 0.702169 0.849642
0.848833 0.686430 0.840874
0.998195 0.674027 0.832105
0.005294 0.992158 0.894114
0.026954 0.964948 0.885196
0.102745 0.947935 0.876278
0.275461 0.930853 0.867360
0.409929 0.913515 0.858442
0.567134 0.889733 0.849538
0.700639 0.858771 0.840769
0.833219 0.834407 0.832001
0.995371 0.812760 0.823135
0.005294 1.000000 0.885138
0.005294 1.000000 0.876220
0.092952 1.000000 0.867302
0.250527 1.000000 0.858384
0.395555 0.999868 0.849466
0.544653 0.998907 0.840666
0.681638 0.997945 0.831897
0.809517 0.996983 0.822883
0.978581 0.988685 0.812196
0.005294 0.018383 1.000000
0.086183 0.008309 0.999501
0.231879 0.005294 0.998749
0.387759 0.005294 0.997997
0.528848 0.005294 0.997246
0.671069 0.005294 0.996494
0.799511 0.005294 0.995742
0.960313 0.005294 0.994990
1.000000 0.005294 0.994238
0.005294 0.098491 0.999731
0.069691 0.076471 0.998979
0.204928 0.067843 0.998227
0.375985 0.061087 0.997476
0.504609 0.054902 0.996724
0.653490 0.048486 0.995972
0.782478 0.044118 0.995221
0.935047 0.028639 0.994469
1.000000 0.018565 0.993717
0.005294 0.263294 0.999210
0.050588 0.236255 0.998458
0.174314 0.212804 0.997706
0.362272 0.195593 0.996955
0.485525 0.179522 0.996203
0.638263 0.163685 0.995451
0.766246 0.145269 0.994699
0.911800 0.122431 0.993947
1.000000 0.092971 0.993195
0.005294 0.385568 0.998688
0.048431 0.365153 0.997936
0.147922 0.349277 0.997185
0.347576 0.333188 0.996433
0.465495 0.319472 0.995681
0.624031 0.306417 0.994930
0.754035 0.292129 0.994178
0.893085 0.279353 0.993426
1.000000 0.258152 0.992674
0.005294 0.519991 0.998167
0.046275 0.503113 0.997415
0.132119 0.489024 0.996663
0.331313 0.471896 0.995912
0.447814 0.455665 0.995160
0.609464 0.436587 0.994408
0.740894 0.418479 0.993656
0.873078 0.400998 0.992904
0.999700 0.382756 0.992153
0.005294 0.671194 0.997645
0.041961 0.656951 0.996894
0.120175 0.642720 0.996142
0.311611 0.624562 0.995390
0.431818 0.602892 0.994639
0.592587 0.580825 0.993887
0.726025 0.558603 0.993135
0.855983 0.538050 0.992353
0.998868 0.517086 0.984331
0.005294 0.806509 0.997124
0.037647 0.789052 0.996372
0.107651 0.771654 0.995620
0.285673 0.751422 0.994869
0.415855 0.733735 0.994117
0.573414 0.711069 0.993365
0.710178 0.692579 0.992021
0.839277 0.680187 0.983998
0.998037 0.668767 0.975975
0.005294 0.982539 0.996603
0.005294 0.954495 0.995851
0.097059 0.937482 0.995099
0.261366 0.920357 0.994347
0.403404 0.903019 0.993596
0.554083 0.878166 0.991689
0.691297 0.848941 0.983666
0.815796 0.825455 0.975643
0.994555 0.804138 0.967620
0.005294 1.000000 0.996081
0.005294 1.000000 0.995329
0.085686 1.000000 0.994578
0.232585 1.000000 0.993826
0.389164 0.999741 0.991356
0.532072 0.998780 0.983333
0.671071 0.997818 0.975311
0.799913 0.989757 0.967288
0.968825 0.979067 0.959265
