Flim/Resources/flim.cube
TITLE "FLIM blended (new 55% / old 45%)"
LUT_3D_SIZE 5
0.048040 0.045572 0.049888
0.311408 0.008872 0.034335
0.620271 0.005294 0.022718
0.878523 0.005294 0.018786
1.000000 0.005294 0.008611
0.005294 0.324902 0.033872
0.281148 0.289480 0.023203
0.578467 0.261154 0.021621
0.851169 0.229828 0.011729
1.000000 0.193360 0.001555
0.005294 0.607592 0.023688
0.240108 0.574917 0.022106
0.535080 0.540549 0.014847
0.822336 0.503876 0.004673
1.000000 0.467028 0.000000
0.005294 0.891068 0.022590
0.196715 0.847267 0.017965
0.497451 0.808381 0.007790
0.788477 0.771927 0.000000
0.999303 0.740687 0.000000
0.005294 1.000000 0.021083
0.151709 1.000000 0.010908
0.460107 1.000000 0.000734
0.738608 0.998833 0.000000
0.996796 0.996910 0.000000
0.005294 0.026360 0.305952
0.300654 0.006213 0.282124
0.601159 0.005294 0.259019
0.861590 0.005294 0.239925
1.000000 0.005294 0.227843
0.005294 0.307092 0.282077
0.266895 0.275967 0.257260
0.554581 0.247768 0.240980
0.834109 0.212461 0.227666
1.000000 0.160253 0.210621
0.005294 0.590703 0.258196
0.215447 0.553313 0.240269
0.513061 0.515874 0.228235
0.804583 0.480869 0.208039
1.000000 0.447539 0.180927
0.005294 0.868257 0.241249
0.164913 0.824554 0.228488
0.475349 0.788199 0.208904
0.758075 0.755713 0.179067
0.998986 0.724806 0.162779
0.005294 1.000000 0.229349
0.123389 1.000000 0.206667
0.441500 1.000000 0.178378
0.718612 0.998579 0.162313
0.995163 0.996655 0.137724
0.005294 0.023701 0.557806
0.287808 0.005294 0.538799
0.578552 0.005294 0.515559
0.844577 0.005294 0.490268
1.000000 0.005294 0.468202
0.005294 0.294083 0.538766
0.242089 0.262685 0.515132
0.530020 0.231075 0.489564
0.816918 0.177897 0.467765
1.000000 0.144117 0.453208
0.005294 0.568789 0.514784
0.181524 0.528183 0.488783
0.488997 0.492549 0.467451
0.774450 0.462827 0.453030
1.000000 0.428700 0.440427
0.005294 0.845452 0.488333
0.136664 0.803853 0.467124
0.455037 0.771320 0.452820
0.737063 0.737836 0.440784
0.998670 0.702488 0.424921
0.005294 1.000000 0.467994
0.108193 1.000000 0.452618
0.419290 1.000000 0.440729
0.708179 0.998325 0.425166
0.993531 0.996402 0.408642
0.005294 0.021042 0.830654
0.264482 0.005294 0.811998
0.553331 0.005294 0.792881
0.827434 0.005294 0.773768
1.000000 0.005294 0.753711
0.005294 0.279213 0.812133
0.207469 0.246273 0.793169
0.506396 0.197055 0.774031
0.788550 0.159215 0.753576
1.000000 0.129637 0.733500
0.005294 0.543463 0.793458
0.152415 0.505490 0.774301
0.468335 0.475794 0.753542
0.753893 0.443685 0.733395
1.000000 0.402634 0.714214
0.005294 0.823983 0.774589
0.120196 0.787237 0.753508
0.433444 0.755881 0.733291
0.724277 0.715412 0.713282
0.998353 0.680237 0.694076
0.005294 1.000000 0.753475
0.098432 1.000000 0.733334
0.401837 0.999995 0.713030
0.692107 0.998072 0.693001
0.985204 0.996148 0.665687
0.005294 0.018383 1.000000
0.231879 0.005294 0.998749
0.528848 0.005294 0.997246
0.799511 0.005294 0.995742
1.000000 0.005294 0.994238
0.005294 0.263294 0.999210
0.174314 0.212804 0.997706
0.485525 0.179522 0.996203
0.766246 0.145269 0.994699
1.000000 0.092971 0.993195
0.005294 0.519991 0.998167
0.132119 0.489024 0.996663
0.447814 0.455665 0.995160
0.740894 0.418479 0.993656
0.999700 0.382756 0.992153
0.005294 0.806509 0.997124
0.107651 0.771654 0.995620
0.415855 0.733735 0.994117
0.710178 0.692579 0.992021
0.998037 0.668767 0.975975
0.005294 1.000000 0.996081
0.085686 1.000000 0.994578
0.389164 0.999741 0.991356
0.671071 0.997818 0.975311
0.968825 0.979067 0.959265
